public/assets/routes_avatar/taxExemptionDetails.svg

<?xml version="1.0" encoding="UTF-8"?>
<svg width="60px" height="60px" viewBox="0 0 60 60" version="1.1" xmlns="http://www.w3.org/2000/svg" xmlns:xlink="http://www.w3.org/1999/xlink">
    <!-- Generator: Sketch 49.3 (51167) - http://www.bohemiancoding.com/sketch -->
    <title>其他台账-减免税明细台账</title>
    <desc>Created with Sketch.</desc>
    <defs>
        <rect id="path-1" x="0" y="0" width="25" height="27" rx="2"></rect>
    </defs>
    <g id="icon" stroke="none" stroke-width="1" fill="none" fill-rule="evenodd">
        <g id="其他台账-减免税明细台账">
            <circle id="Oval-Copy" fill="#49A7FF" cx="30" cy="30" r="30"></circle>
            <g id="Group-56" transform="translate(16.000000, 16.000000)">
                <g id="Rectangle-4">
                    <use fill="#49A7FF" fill-rule="evenodd" xlink:href="#path-1"></use>
                    <rect stroke="#FFFFFF" stroke-width="1.5" x="0.75" y="0.75" width="23.5" height="25.5" rx="2"></rect>
                </g>
                <circle id="Oval-2" fill="#49A7FF" cx="20.5" cy="20.5" r="7.5"></circle>
                <polygon id="￥" fill="#FFFFFF" points="4 18 5.45392491 18 7 20.5294118 8.54607509 18 10 18 8.03412969 20.9243697 9.3447099 20.9243697 9.3447099 21.4789916 7.6552901 21.4789916 7.64505119 21.487395 7.64505119 22.1848739 9.3447099 22.1848739 9.3447099 22.7394958 7.64505119 22.7394958 7.64505119 24 6.35494881 24 6.35494881 22.7394958 4.66552901 22.7394958 4.66552901 22.1848739 6.35494881 22.1848739 6.35494881 21.487395 6.3447099 21.4789916 4.66552901 21.4789916 4.66552901 20.9243697 5.96587031 20.9243697"></polygon>
                <rect id="Rectangle-14" fill="#FFFFFF" x="4" y="5" width="16" height="1.5" rx="0.75"></rect>
                <rect id="Rectangle-14-Copy" fill="#FFFFFF" x="4" y="9" width="16" height="1.5" rx="0.75"></rect>
                <rect id="Rectangle-14-Copy-2" fill="#FFFFFF" x="4" y="13" width="8" height="1.5" rx="0.75"></rect>
                <path d="M21,27 C17.6862915,27 15,24.3137085 15,21 C15,17.6862915 17.6862915,15 21,15 C24.3137085,15 27,17.6862915 27,21 C27,24.3137085 24.3137085,27 21,27 Z M21,25.7586207 C23.6281136,25.7586207 25.7586207,23.6281136 25.7586207,21 C25.7586207,18.3718864 23.6281136,16.2413793 21,16.2413793 C18.3718864,16.2413793 16.2413793,18.3718864 16.2413793,21 C16.2413793,23.6281136 18.3718864,25.7586207 21,25.7586207 Z" id="Oval-3" fill="#FFFFFF" fill-rule="nonzero"></path>
                <path d="M18.678,20.016 C18.582,20.076 18.492,20.142 18.402,20.202 L18,19.722 C18.684,19.32 19.284,18.744 19.8,18 L20.43,18.144 C20.346,18.27 20.268,18.39 20.19,18.498 L22.164,18.498 L22.164,18.966 C21.966,19.218 21.768,19.434 21.576,19.626 L22.908,19.626 L22.908,21.6 L21.552,21.6 L21.552,22.638 C21.552,22.806 21.618,22.896 21.762,22.896 L22.65,22.896 C22.722,22.896 22.776,22.854 22.812,22.782 C22.848,22.704 22.878,22.464 22.89,22.068 L23.484,22.254 C23.436,22.86 23.358,23.22 23.25,23.34 C23.148,23.448 22.986,23.502 22.77,23.502 L21.57,23.502 C21.138,23.502 20.928,23.256 20.928,22.77 L20.928,21.6 L20.76,21.6 C20.724,21.702 20.682,21.798 20.64,21.894 C20.334,22.578 19.596,23.154 18.42,23.61 L18.018,23.124 C19.05,22.74 19.716,22.272 20.028,21.726 C20.052,21.678 20.07,21.636 20.088,21.6 L18.678,21.6 L18.678,20.016 Z M20.79,19.626 C20.976,19.458 21.162,19.272 21.354,19.062 L19.74,19.062 C19.554,19.266 19.362,19.452 19.17,19.626 L20.79,19.626 Z M22.302,21.012 L22.302,20.208 L21.024,20.208 C21.012,20.496 20.976,20.76 20.928,21.012 L22.302,21.012 Z M20.286,21.012 C20.34,20.766 20.376,20.496 20.394,20.208 L19.29,20.208 L19.29,21.012 L20.286,21.012 Z" id="免" fill="#FFFFFF"></path>
            </g>
        </g>
    </g>
</svg>

<svg width="60" height="60" xmlns="http://www.w3.org/2000/svg" xmlns:xlink="http://www.w3.org/1999/xlink"><defs><rect id="a" x="0" y="0" width="25" height="27" rx="2"/></defs><g fill="none" fill-rule="evenodd"><circle fill="#49A7FF" cx="30" cy="30" r="30"/><g transform="translate(16 16)"><use fill="#49A7FF" xlink:href="#a"/><rect stroke="#FFF" stroke-width="1.5" x=".75" y=".75" width="23.5" height="25.5" rx="2"/><circle fill="#49A7FF" cx="20.5" cy="20.5" r="7.5"/><path fill="#FFF" d="M4 18h1.454L7 20.53 8.546 18H10l-1.966 2.924h1.31v.555H7.656l-.01.008v.698h1.7v.554h-1.7V24h-1.29v-1.26h-1.69v-.555h1.69v-.698l-.01-.008h-1.68v-.555h1.3z"/><rect fill="#FFF" x="4" y="5" width="16" height="1.5" rx=".75"/><rect fill="#FFF" x="4" y="9" width="16" height="1.5" rx=".75"/><rect fill="#FFF" x="4" y="13" width="8" height="1.5" rx=".75"/><path d="M21 27a6 6 0 1 1 0-12 6 6 0 0 1 0 12zm0-1.241a4.759 4.759 0 1 0 0-9.518 4.759 4.759 0 0 0 0 9.518z" fill="#FFF" fill-rule="nonzero"/><path d="M18.678 20.016c-.096.06-.186.126-.276.186l-.402-.48c.684-.402 1.284-.978 1.8-1.722l.63.144c-.084.126-.162.246-.24.354h1.974v.468a7.345 7.345 0 0 1-.588.66h1.332V21.6h-1.356v1.038c0 .168.066.258.21.258h.888c.072 0 .126-.042.162-.114.036-.078.066-.318.078-.714l.594.186c-.048.606-.126.966-.234 1.086-.102.108-.264.162-.48.162h-1.2c-.432 0-.642-.246-.642-.732V21.6h-.168c-.036.102-.078.198-.12.294-.306.684-1.044 1.26-2.22 1.716l-.402-.486c1.032-.384 1.698-.852 2.01-1.398.024-.048.042-.09.06-.126h-1.41v-1.584zm2.112-.39c.186-.168.372-.354.564-.564H19.74c-.186.204-.378.39-.57.564h1.62zm1.512 1.386v-.804h-1.278a5.465 5.465 0 0 1-.096.804h1.374zm-2.016 0c.054-.246.09-.516.108-.804H19.29v.804h.996z" fill="#FFF"/></g></g></svg>
